src/Assets/Rectangle 24120.svg

<svg width="167" height="152" viewBox="0 0 167 152" fill="none" xmlns="http://www.w3.org/2000/svg">
<path d="M0.67374 150.222C0.386419 149.793 0.179953 149.305 0.0761361 148.781L0.56663 148.684C0.52297 148.463 0.5 148.234 0.5 148V147.015H0V145.044H0.5V143.074H0V141.103H0.5V139.132H0V137.162H0.5V135.191H0V133.221H0.5V131.25H0V129.279H0.5V127.309H0V125.338H0.5V123.368H0V121.397H0.5V119.426H0V117.456H0.5V115.485H0V113.515H0.5V111.544H0V109.574H0.5V107.603H0V105.632H0.5V103.662H0V101.691H0.5V99.7206H0V97.75H0.5V95.7794H0V93.8088H0.5V91.8382H0V89.8677H0.5V87.8971H0V85.9265H0.5V83.9559H0V81.9853H0.5V80.0147H0V78.0441H0.5V76.0735H0V74.103H0.5V72.1324H0V70.1618H0.5V68.1912H0V66.2206H0.5V64.25H0V62.2794H0.5V60.3088H0V58.3382H0.5V56.3677H0V54.3971H0.5V52.4265H0V50.4559H0.5V48.4853H0V46.5147H0.5V44.5441H0V42.5735H0.5V40.6029H0V38.6324H0.5V36.6618H0V34.6912H0.5V32.7206H0V30.75H0.5V28.7794H0V26.8088H0.5V24.8382H0V22.8677H0.5V20.8971H0V18.9265H0.5V16.9559H0V14.9853H0.5V14C0.5 13.7656 0.52297 13.5371 0.56663 13.3164L0.0761362 13.2194C0.179953 12.6946 0.386418 12.2067 0.673738 11.7775L1.08922 12.0557C1.3449 11.6738 1.6738 11.3449 2.0557 11.0892L1.77754 10.6737C2.2067 10.3864 2.69457 10.18 3.21935 10.0761L3.31639 10.5666C3.53708 10.523 3.76561 10.5 4 10.5H5.00458V10H7.01373V10.5H8.01831C8.3182 10.5 8.61172 10.4706 8.89599 10.4144L8.79895 9.92386C9.32373 9.82005 9.8116 9.61358 10.2408 9.32626L10.5189 9.74175C11.0094 9.41335 11.4317 8.99114 11.7601 8.50062L11.3446 8.22246C11.6319 7.7933 11.8384 7.30543 11.9422 6.78065L12.4327 6.87768C12.4889 6.59342 12.5183 6.29989 12.5183 6V5.5H12.0183V4.5H12.5183V4C12.5183 3.76561 12.5413 3.53708 12.5849 3.31639L12.0944 3.21935C12.1983 2.69457 12.4047 2.2067 12.692 1.77754L13.1075 2.0557C13.3632 1.6738 13.6921 1.3449 14.074 1.08922L13.7958 0.673738C14.225 0.386418 14.7129 0.179953 15.2377 0.0761362L15.3347 0.56663C15.5554 0.52297 15.7839 0.5 16.0183 0.5H16.9906V0H18.9353V0.5H20.88V0H22.8247V0.5H24.7694V0H26.7142V0.5H28.6589V0H30.6036V0.5H32.5483V0H34.493V0.5H36.4377V0H38.3824V0.5H40.3271V0H42.2718V0.5H44.2165V0H46.1612V0.5H48.1059V0H50.0506V0.5H51.9953V0H53.94V0.5H55.8847V0H57.8294V0.5H59.7741V0H61.7188V0.5H63.6635V0H65.6082V0.5H67.5529V0H69.4976V0.5H71.4423V0H73.387V0.5H74.3593C74.5937 0.5 74.8223 0.52297 75.043 0.56663L75.14 0.0761369C75.6648 0.179954 76.1526 0.38642 76.5818 0.67374L76.3036 1.08922C76.6855 1.3449 77.0145 1.6738 77.2701 2.0557L77.6856 1.77754C77.9729 2.2067 78.1794 2.69457 78.2832 3.21935L77.7927 3.31639C77.8364 3.53708 77.8593 3.76561 77.8593 4V4.5H78.3593V5.5H77.8593V6C77.8593 6.29989 77.8887 6.59342 77.945 6.87768L78.4355 6.78065C78.5393 7.30543 78.7458 7.7933 79.0331 8.22246L78.6176 8.50062C78.946 8.99114 79.3682 9.41335 79.8587 9.74174L80.1369 9.32626C80.566 9.61358 81.0539 9.82005 81.5787 9.92386L81.4817 10.4144C81.7659 10.4706 82.0594 10.5 82.3593 10.5H83.359V10H85.3583V10.5H87.3577V10H89.357V10.5H91.3564V10H93.3557V10.5H95.3551V10H97.3544V10.5H99.3538V10H101.353V10.5H103.352V10H105.352V10.5H107.351V10H109.351V10.5H111.35V10H113.349V10.5H115.349V10H117.348V10.5H119.347V10H121.347V10.5H123.346V10H125.345V10.5H127.345V10H129.344V10.5H131.343V10H133.343V10.5H135.342V10H137.341V10.5H139.341V10H141.34V10.5H143.34V10H145.339V10.5H147.338V10H149.338V10.5H151.337V10H153.336V10.5H155.336V10H157.335V10.5H159.334V10H161.334V10.5H162.333C162.568 10.5 162.796 10.523 163.017 10.5666L163.114 10.0761C163.639 10.18 164.127 10.3864 164.556 10.6737L164.278 11.0892C164.66 11.3449 164.988 11.6738 165.244 12.0557L165.66 11.7775C165.947 12.2067 166.153 12.6946 166.257 13.2194L165.767 13.3164C165.81 13.5371 165.833 13.7656 165.833 14V14.9853H166.333V16.9559H165.833V18.9265H166.333V20.897H165.833V22.8676H166.333V24.8382H165.833V26.8088H166.333V28.7794H165.833V30.75H166.333V32.7206H165.833V34.6912H166.333V36.6617H165.833V38.6323H166.333V40.6029H165.833V42.5735H166.333V44.5441H165.833V46.5147H166.333V48.4853H165.833V50.4559H166.333V52.4265H165.833V54.397H166.333V56.3676H165.833V58.3382H166.333V60.3088H165.833V62.2794H166.333V64.25H165.833V66.2206H166.333V68.1912H165.833V70.1618H166.333V72.1323H165.833V74.1029H166.333V76.0735H165.833V78.0441H166.333V80.0147H165.833V81.9853H166.333V83.9559H165.833V85.9265H166.333V87.897H165.833V89.8676H166.333V91.8382H165.833V93.8088H166.333V95.7794H165.833V97.75H166.333V99.7206H165.833V101.691H166.333V103.662H165.833V105.632H166.333V107.603H165.833V109.574H166.333V111.544H165.833V113.515H166.333V115.485H165.833V117.456H166.333V119.426H165.833V121.397H166.333V123.368H165.833V125.338H166.333V127.309H165.833V129.279H166.333V131.25H165.833V133.221H166.333V135.191H165.833V137.162H166.333V139.132H165.833V141.103H166.333V143.074H165.833V145.044H166.333V147.015H165.833V148C165.833 148.234 165.81 148.463 165.767 148.684L166.257 148.781C166.153 149.305 165.947 149.793 165.66 150.222L165.244 149.944C164.988 150.326 164.66 150.655 164.278 150.911L164.556 151.326C164.127 151.614 163.639 151.82 163.114 151.924L163.017 151.433C162.796 151.477 162.568 151.5 162.333 151.5H161.344V152H159.365V151.5H157.385V152H155.406V151.5H153.427V152H151.448V151.5H149.469V152H147.49V151.5H145.51V152H143.531V151.5H141.552V152H139.573V151.5H137.594V152H135.615V151.5H133.635V152H131.656V151.5H129.677V152H127.698V151.5H125.719V152H123.74V151.5H121.76V152H119.781V151.5H117.802V152H115.823V151.5H113.844V152H111.865V151.5H109.885V152H107.906V151.5H105.927V152H103.948V151.5H101.969V152H99.9896V151.5H98.0104V152H96.0312V151.5H94.0521V152H92.0729V151.5H90.0937V152H88.1146V151.5H86.1354V152H84.1562V151.5H82.1771V152H80.1979V151.5H78.2188V152H76.2396V151.5H74.2604V152H72.2813V151.5H70.3021V152H68.3229V151.5H66.3438V152H64.3646V151.5H62.3854V152H60.4063V151.5H58.4271V152H56.4479V151.5H54.4688V152H52.4896V151.5H50.5104V152H48.5313V151.5H46.5521V152H44.5729V151.5H42.5938V152H40.6146V151.5H38.6354V152H36.6562V151.5H34.6771V152H32.6979V151.5H30.7187V152H28.7396V151.5H26.7604V152H24.7812V151.5H22.8021V152H20.8229V151.5H18.8438V152H16.8646V151.5H14.8854V152H12.9062V151.5H10.9271V152H8.94792V151.5H6.96875V152H4.98958V151.5H4C3.76561 151.5 3.53708 151.477 3.31639 151.433L3.21935 151.924C2.69457 151.82 2.2067 151.614 1.77754 151.326L2.0557 150.911C1.6738 150.655 1.3449 150.326 1.08922 149.944L0.67374 150.222Z" fill="#2F32DE" fill-opacity="0.2" stroke="#2F32DE" stroke-dasharray="2 2"/>
</svg>

<svg xmlns="http://www.w3.org/2000/svg" width="167" height="152" fill="none"><path fill="#2F32DE" fill-opacity=".2" stroke="#2F32DE" stroke-dasharray="2 2" d="M.674 150.222a4 4 0 0 1-.598-1.441l.49-.097A3.5 3.5 0 0 1 .5 148v-.985H0v-1.971h.5v-1.97H0v-1.971h.5v-1.971H0v-1.97h.5v-1.971H0v-1.97h.5v-1.971H0v-1.971h.5v-1.97H0v-1.971h.5v-1.97H0v-1.971h.5v-1.971H0v-1.97h.5v-1.971H0v-1.97h.5v-1.971H0v-1.97h.5v-1.971H0v-1.971h.5v-1.97H0v-1.971h.5v-1.97H0V97.75h.5v-1.97H0v-1.971h.5v-1.97H0v-1.971h.5v-1.97H0v-1.971h.5v-1.971H0v-1.97h.5v-1.971H0v-1.97h.5v-1.972H0v-1.97h.5v-1.97H0v-1.971h.5v-1.97H0V66.22h.5V64.25H0v-1.97h.5v-1.971H0v-1.97h.5v-1.971H0v-1.97h.5v-1.972H0v-1.97h.5v-1.97H0v-1.971h.5v-1.97H0v-1.971h.5v-1.971H0v-1.97h.5v-1.971H0v-1.97h.5V32.72H0V30.75h.5v-1.97H0v-1.971h.5v-1.97H0v-1.971h.5v-1.97H0v-1.971h.5v-1.971H0v-1.97h.5V14q0-.352.067-.684l-.49-.097c.103-.524.31-1.012.597-1.441l.415.278c.256-.382.585-.711.967-.967l-.278-.415a4 4 0 0 1 1.441-.598l.097.49q.332-.065.684-.066h1.005V10h2.009v.5h1.004q.451-.001.878-.086l-.097-.49a4 4 0 0 0 1.442-.598l.278.416c.49-.329.913-.75 1.241-1.241l-.415-.279c.287-.429.493-.917.597-1.441l.49.097q.086-.428.086-.878v-.5h-.5v-1h.5V4q0-.352.067-.684l-.49-.097a4 4 0 0 1 .597-1.441l.415.278c.256-.382.585-.711.967-.967l-.278-.415c.429-.288.917-.494 1.442-.598l.097.49q.331-.065.683-.066h.973V0h1.944v.5h1.945V0h1.945v.5h1.944V0h1.945v.5h1.945V0h1.945v.5h1.944V0h1.945v.5h1.945V0h1.944v.5h1.945V0h1.945v.5h1.945V0h1.944v.5h1.945V0h1.945v.5h1.944V0h1.945v.5h1.945V0h1.944v.5h1.945V0h1.945v.5h1.944V0h1.945v.5h1.945V0h1.945v.5h1.944V0h1.945v.5h.972q.353 0 .684.067l.097-.49c.525.103 1.013.31 1.442.597l-.278.415c.382.256.71.585.966.967l.416-.278c.287.429.493.917.597 1.441l-.49.097q.065.332.066.684v.5h.5v1h-.5V6q.001.45.086.878l.49-.097c.104.524.31 1.012.598 1.441l-.415.279c.328.49.75.912 1.24 1.24l.279-.415c.429.288.917.494 1.442.598l-.097.49q.427.086.877.086h1V10h2v.5h1.999V10h1.999v.5h2V10h1.999v.5h2V10h1.998v.5h2V10h1.999v.5h1.999V10h2v.5h1.999V10h2v.5h1.999V10h1.999v.5h2V10h1.999v.5h1.999V10h2v.5h1.999V10h1.999v.5h2V10h1.999v.5h1.999V10h2v.5h1.999V10h1.999v.5h2V10h1.999v.5h2V10h1.999v.5h1.999V10h2v.5h1.999V10h1.999v.5h2V10h1.999v.5h1.999V10h2v.5h.999q.353 0 .684.067l.097-.49c.525.103 1.013.31 1.442.597l-.278.415c.382.256.71.585.966.967l.416-.278c.287.429.493.917.597 1.441l-.49.097q.065.332.066.684v.985h.5v1.97h-.5v1.972h.5v1.97h-.5v1.97h.5v1.971h-.5v1.97h.5v1.971h-.5v1.971h.5v1.97h-.5v1.971h.5v1.97h-.5v1.971h.5v1.97h-.5v1.972h.5v1.97h-.5v1.97h.5v1.971h-.5v1.97h.5v1.971h-.5v1.971h.5v1.97h-.5v1.971h.5v1.97h-.5v1.971h.5v1.971h-.5v1.97h.5v1.971h-.5v1.97h.5v1.971h-.5v1.97h.5v1.971h-.5v1.971h.5v1.97h-.5v1.971h.5v1.97h-.5v1.972h.5v1.97h-.5v1.97h.5v1.971h-.5v1.97h.5v1.971h-.5v1.971h.5v1.97h-.5v1.971h.5v1.971h-.5v1.97h.5v1.971h-.5v1.971h.5v1.97h-.5v1.971h.5v1.97h-.5v1.971h.5v1.97h-.5v1.971h.5v1.971h-.5v1.97h.5v1.971h-.5v1.97h.5v1.971h-.5v1.971h.5v1.97h-.5v1.971h.5v1.97h-.5v1.971h.5v1.971h-.5v1.97h.5v1.971h-.5V148q0 .352-.066.684l.49.097a4 4 0 0 1-.597 1.441l-.416-.278a3.5 3.5 0 0 1-.966.967l.278.415a4 4 0 0 1-1.442.598l-.097-.491a3.5 3.5 0 0 1-.684.067h-.989v.5h-1.979v-.5h-1.98v.5h-1.979v-.5h-1.979v.5h-1.979v-.5h-1.979v.5h-1.979v-.5h-1.98v.5h-1.979v-.5h-1.979v.5h-1.979v-.5h-1.979v.5h-1.979v-.5h-1.98v.5h-1.979v-.5h-1.979v.5h-1.979v-.5h-1.979v.5h-1.979v-.5h-1.98v.5h-1.979v-.5h-1.979v.5h-1.979v-.5h-1.979v.5h-1.979v-.5h-1.98v.5h-1.979v-.5h-1.979v.5h-1.979v-.5h-1.979v.5h-1.98v-.5H98.01v.5h-1.979v-.5h-1.979v.5h-1.98v-.5h-1.978v.5h-1.98v-.5h-1.979v.5h-1.979v-.5h-1.979v.5h-1.98v-.5H78.22v.5h-1.98v-.5H74.26v.5h-1.979v-.5h-1.979v.5h-1.98v-.5h-1.978v.5h-1.98v-.5h-1.979v.5h-1.979v-.5h-1.979v.5h-1.98v-.5H54.47v.5h-1.98v-.5H50.51v.5h-1.979v-.5h-1.979v.5h-1.98v-.5h-1.978v.5h-1.98v-.5h-1.979v.5h-1.979v-.5h-1.979v.5h-1.98v-.5H30.72v.5h-1.98v-.5H26.76v.5h-1.979v-.5h-1.979v.5h-1.98v-.5h-1.978v.5h-1.98v-.5h-1.979v.5h-1.979v-.5h-1.979v.5h-1.98v-.5H6.97v.5h-1.98v-.5H4q-.352 0-.684-.067l-.097.491a4 4 0 0 1-1.441-.598l.278-.415a3.5 3.5 0 0 1-.967-.967z"/></svg>
